X: 15
T:Aughamore
M:2/2
L:1/8
C:Ed Reavy
S:The Collected Compositions of Ed Reavy
R:Reel
N:Delia's town, just a short distance from
N:her native village of Aughtaboy.
N:Like so many beautiful Irish places names,
N:Aughamore could fit nicely in
N:any charming line of verse. No wonder the
N:immigrant takes pride in rehearsi
N:the sound of his own native place. He has
N:lost much, but certainly not all.
N:No feeling can quite match that stirring
N:of the heart when an exile
N:hears his "own place home" spoken on
N:the lips of those he loves.
Z:Joe Reavy
K:D
FG | ADFA dAFG | ADFA fedc | BEED EFGf | gfed cAAc |
dfdf cece | BcdB AFDF | EFGA B2 (3dcB |1 cAGE D2 :|
|2 cAGE FD D2 || fgaf gece | dfed cAAg | fg (3agf bgec |
dfeg fddf | afdf gece | dfed cAGE | FGAB (3ccd ed |
|1 cAGE FD D2 :|2 cAGE D2 |]

composer: Paddy O'Brien
